src/gen3-ui-component/images/icons/folder.svg

<?xml version="1.0" encoding="UTF-8"?>
<svg width="18px" height="15px" viewBox="0 0 18 15" version="1.1" xmlns="http://www.w3.org/2000/svg" xmlns:xlink="http://www.w3.org/1999/xlink">
    <!-- Generator: Sketch 52.2 (67145) - http://www.bohemiancoding.com/sketch -->
    <title>Shape</title>
    <desc>Created with Sketch.</desc>
    <g id="Page-1" stroke="none" stroke-width="1" fill="none" fill-rule="evenodd">
        <path d="M17.247,4.89795918 L16.2,4.89795918 L16.2,2.97918367 C16.2,2.51785714 15.8322,2.14285714 15.3804,2.14285714 L7.9545,2.14285714 L6.4545,0 L0.8196,0 C0.3678,0 0,0.375306122 0,0.836326531 L0,14.209898 L0.0018,14.209898 C0.0003,14.3822449 0.0528,14.5509184 0.1584,14.6920408 C0.3054,14.8879592 0.528,15 0.7695,15 L14.1972,15 C14.544,15 14.8494,14.7615306 14.9322,14.445 L18,5.86193878 L18,5.8077551 C18,5.28061224 17.6832,4.89795918 17.247,4.89795918 Z M1,1.21097096 C1,1.09453344 1.09292521,1 1.20675154,1 L6.22104129,1 L7.63327859,3.01748185 L14.915339,3.01748185 C15.0294478,3.01748185 15.1220905,3.11201529 15.1220905,3.22845281 L15.1220905,5.03496371 L4.03094369,5.03496371 C3.99027125,5.03496371 3.94988127,5.03842225 3.91062107,5.04533933 C3.63579969,5.09231784 3.4072997,5.29694814 3.33922986,5.5572033 L1,12.0670408 L1,1.21097096 Z M14.2055067,13.8849655 C14.1867991,13.9525517 14.1230232,14 14.0510273,14 L1.36416596,14 C1.29528803,14 1.25503838,13.9616552 1.23718114,13.9387586 C1.21932389,13.9161379 1.19182941,13.8681379 1.202317,13.8262069 L4.09093838,6.11503448 C4.10964596,6.04744828 4.17342183,6 4.24541769,6 L15.943328,6 L16.9325625,6 C17.0402729,6 17.0677673,6.15062069 17.0748535,6.22593103 L14.2055067,13.8849655 Z" id="Shape" fill="#606060" fill-rule="nonzero"></path>
    </g>
</svg>

<svg width="18" height="15" xmlns="http://www.w3.org/2000/svg"><path d="M17.247 4.898H16.2V2.979a.829.829 0 0 0-.82-.836H7.954L6.455 0H.82A.83.83 0 0 0 0 .836V14.21h.002a.79.79 0 0 0 .156.482c.147.196.37.308.611.308h13.428a.764.764 0 0 0 .735-.555L18 5.862v-.054c0-.527-.317-.91-.753-.91ZM1 1.211A.21.21 0 0 1 1.207 1H6.22l1.412 2.017h7.282a.21.21 0 0 1 .207.211v1.807H4.031a.716.716 0 0 0-.692.522L1 12.067V1.211Zm13.206 12.674a.16.16 0 0 1-.155.115H1.364a.158.158 0 0 1-.127-.061c-.018-.023-.045-.07-.035-.113l2.889-7.711A.16.16 0 0 1 4.245 6h12.688c.107 0 .135.15.142.226l-2.87 7.659Z" fill="#606060"/></svg>
